src/assets/icons/javascript.svg

<?xml version="1.0" encoding="utf-8"?><!-- Uploaded to: SVG Repo, www.svgrepo.com, Generator: SVG Repo Mixer Tools -->
<svg width="800px" height="800px" viewBox="0 0 16 16" fill="#F0DB4F" xmlns="http://www.w3.org/2000/svg">
<path fill-rule="nonzero" clip-rule="nonzero" d="M0 1.75C0 0.783501 0.783502 0 1.75 0H14.25C15.2165 0 16 0.783502 16 1.75V3.75C16 4.16421 15.6642 4.5 15.25 4.5C14.8358 4.5 14.5 4.16421 14.5 3.75V1.75C14.5 1.61193 14.3881 1.5 14.25 1.5H1.75C1.61193 1.5 1.5 1.61193 1.5 1.75V14.25C1.5 14.3881 1.61193 14.5 1.75 14.5H15.25C15.6642 14.5 16 14.8358 16 15.25C16 15.6642 15.6642 16 15.25 16H1.75C0.783501 16 0 15.2165 0 14.25V1.75ZM8.25 5.75C8.66421 5.75 9 6.08579 9 6.5V10.5C9 11.5048 8.72399 12.2584 8.15514 12.7324C7.61223 13.1848 6.95384 13.25 6.5 13.25C6.08579 13.25 5.75 12.9142 5.75 12.5C5.75 12.0858 6.08579 11.75 6.5 11.75C6.84617 11.75 7.06277 11.6902 7.19486 11.5801C7.301 11.4916 7.5 11.2452 7.5 10.5V6.5C7.5 6.08579 7.83578 5.75 8.25 5.75ZM11.2757 6.58011C11.6944 6.08164 12.3507 5.75 13.25 5.75C14.0849 5.75 14.7148 6.03567 15.1394 6.48481C15.4239 6.78583 15.4105 7.26052 15.1095 7.54505C14.8085 7.82958 14.3338 7.81621 14.0493 7.51519C13.9394 7.39898 13.7204 7.25 13.25 7.25C12.7493 7.25 12.5306 7.41836 12.4243 7.54489C12.2934 7.70065 12.25 7.896 12.25 8C12.25 8.104 12.2934 8.29935 12.4243 8.45511C12.5306 8.58164 12.7493 8.75 13.25 8.75C13.3257 8.75 13.3988 8.76121 13.4676 8.78207C14.1307 8.87646 14.6319 9.17251 14.9743 9.58011C15.3684 10.0493 15.5 10.604 15.5 11C15.5 11.396 15.3684 11.9507 14.9743 12.4199C14.5556 12.9184 13.8993 13.25 13 13.25C12.1651 13.25 11.5352 12.9643 11.1106 12.5152C10.8261 12.2142 10.8395 11.7395 11.1405 11.4549C11.4415 11.1704 11.9162 11.1838 12.2007 11.4848C12.3106 11.601 12.5296 11.75 13 11.75C13.5007 11.75 13.7194 11.5816 13.8257 11.4551C13.9566 11.2993 14 11.104 14 11C14 10.896 13.9566 10.7007 13.8257 10.5449C13.7194 10.4184 13.5007 10.25 13 10.25C12.9243 10.25 12.8512 10.2388 12.7824 10.2179C12.1193 10.1235 11.6181 9.82749 11.2757 9.41989C10.8816 8.95065 10.75 8.396 10.75 8C10.75 7.604 10.8816 7.04935 11.2757 6.58011Z" fill="#F0DB4F"/>
</svg>

<svg xmlns="http://www.w3.org/2000/svg" width="800" height="800" fill="#F0DB4F" viewBox="0 0 16 16"><path d="M0 1.75C0 .784.784 0 1.75 0h12.5C15.216 0 16 .784 16 1.75v2a.75.75 0 0 1-1.5 0v-2a.25.25 0 0 0-.25-.25H1.75a.25.25 0 0 0-.25.25v12.5c0 .138.112.25.25.25h13.5a.75.75 0 0 1 0 1.5H1.75A1.75 1.75 0 0 1 0 14.25zm8.25 4A.75.75 0 0 1 9 6.5v4c0 1.005-.276 1.758-.845 2.232-.543.453-1.201.518-1.655.518a.75.75 0 0 1 0-1.5c.346 0 .563-.06.695-.17.106-.088.305-.335.305-1.08v-4a.75.75 0 0 1 .75-.75m3.026.83c.418-.498 1.075-.83 1.974-.83.835 0 1.465.286 1.89.735a.75.75 0 0 1-1.09 1.03c-.11-.116-.33-.265-.8-.265-.5 0-.72.168-.826.295A.77.77 0 0 0 12.25 8c0 .104.043.3.174.455.107.127.325.295.826.295q.114 0 .218.032c.663.094 1.164.39 1.506.798.394.47.526 1.024.526 1.42s-.132.95-.526 1.42c-.418.498-1.075.83-1.974.83-.835 0-1.465-.286-1.89-.735a.75.75 0 0 1 1.09-1.03c.11.116.33.265.8.265.5 0 .72-.168.826-.295A.77.77 0 0 0 14 11c0-.104-.043-.3-.174-.455-.107-.127-.325-.295-.826-.295a.8.8 0 0 1-.218-.032c-.663-.095-1.164-.39-1.506-.798A2.26 2.26 0 0 1 10.75 8c0-.396.132-.95.526-1.42"/></svg>
